Sources/FrostedUI/Resources/Icons.xcassets/shieldCheckmark12.imageset/shield-checkmark-12.svg

<svg width="12" height="12" viewBox="0 0 12 12" fill="none" xmlns="http://www.w3.org/2000/svg" data-fui-icon="true">
  <path
    d="M5.44629 0.768646C5.80547 0.648958 6.19453 0.648958 6.55371 0.768646L9.67871 1.81064C10.3929 2.04891 10.8749 2.71778 10.875 3.47079V5.95615C10.8749 7.45005 10.2229 8.55327 9.3291 9.40146C8.46347 10.2228 7.34066 10.8324 6.35645 11.3634L6.27051 11.4034C6.06743 11.4819 5.83791 11.4682 5.64355 11.3634C4.65934 10.8324 3.53653 10.2228 2.6709 9.40146C1.77715 8.55327 1.12507 7.45005 1.125 5.95615V3.47079C1.12513 2.71781 1.607 2.04892 2.32129 1.81064L5.44629 0.768646ZM5.9209 2.1915L2.7959 3.23349C2.69397 3.26751 2.62513 3.36335 2.625 3.47079V5.95615C2.62507 6.9479 3.03575 7.67935 3.7041 8.31357C4.31827 8.89625 5.12262 9.36831 6 9.84775C6.87738 9.36831 7.68173 8.89625 8.2959 8.31357C8.96425 7.67935 9.37493 6.9479 9.375 5.95615V3.47079C9.37487 3.36336 9.30602 3.26751 9.2041 3.23349L6.0791 2.1915C6.05346 2.18297 6.02666 2.1788 6 2.1788L5.9209 2.1915ZM6.84473 4.21982C7.13758 3.92713 7.61242 3.92713 7.90527 4.21982C8.19793 4.51268 8.19795 4.98752 7.90527 5.28036L6.03027 7.15536C5.73743 7.448 5.26257 7.44799 4.96973 7.15536L4.09473 6.28036C3.80205 5.98752 3.80208 5.51268 4.09473 5.21982C4.38758 4.92713 4.86242 4.92713 5.15527 5.21982L5.5 5.56454L6.84473 4.21982Z"
    fill="currentColor"
  />
</svg>

<svg xmlns="http://www.w3.org/2000/svg" width="12" height="12" fill="none" data-fui-icon="true" viewBox="0 0 12 12"><path fill="currentColor" d="M5.446.769c.36-.12.749-.12 1.108 0L9.679 1.81a1.75 1.75 0 0 1 1.196 1.66v2.485c0 1.494-.652 2.597-1.546 3.445-.866.822-1.988 1.431-2.973 1.962l-.085.04a.75.75 0 0 1-.627-.04c-.985-.53-2.107-1.14-2.973-1.962-.894-.848-1.546-1.95-1.546-3.445V3.471a1.75 1.75 0 0 1 1.196-1.66zm.475 1.423L2.796 3.233a.25.25 0 0 0-.171.238v2.485c0 .992.41 1.723 1.08 2.358.613.582 1.418 1.054 2.295 1.534.877-.48 1.682-.952 2.296-1.534.668-.635 1.079-1.366 1.079-2.358V3.471a.25.25 0 0 0-.17-.238L6.078 2.192A.3.3 0 0 0 6 2.179zm.924 2.028a.75.75 0 0 1 1.06 1.06L6.03 7.155a.75.75 0 0 1-1.06 0l-.875-.875a.75.75 0 0 1 1.06-1.06l.345.345z"/></svg>
